templates/main/source/images/price_updated.svg

<?xml version="1.0" encoding="utf-8"?>
<svg width="16px" height="16px" viewBox="0 0 16 16" version="1.1" xmlns:xlink="http://www.w3.org/1999/xlink" xmlns="http://www.w3.org/2000/svg">
  <desc>Created with Lunacy</desc>
  <path d="M8.72631 5.53778L14 5.53778L14 0L11.8765 2.18556C9.14634 -0.513333 4.76715 -0.513333 2.03697 2.18556C-0.693215 4.88444 -0.66988 9.27111 2.05253 11.97C4.78271 14.6767 9.21634 14.6767 11.9465 11.97C13.3155 10.6167 14 8.61778 14 7.07778L12.4443 7.07778C12.4443 8.61778 11.9154 9.83889 10.8576 10.8811C8.73409 12.9889 5.29608 12.9889 3.1726 10.8811C1.04912 8.77333 1.04912 5.37444 3.1726 3.26667C5.29608 1.16667 8.73409 1.24444 10.8576 3.34444L8.72631 5.53778ZM7.38844 7.19444L7.38844 3.88889L6.2217 3.88889L6.2217 7.77778L9.55081 9.75333L10.1108 8.81222L7.38844 7.19444Z" transform="translate(1 1)" id="price-updated" fill="#B2B6B8" fill-rule="evenodd" stroke="none" />
</svg>

<svg width="16" height="16" viewBox="0 0 16 16" xmlns:xlink="http://www.w3.org/1999/xlink" xmlns="http://www.w3.org/2000/svg"><path d="M8.726 5.538H14V0l-2.123 2.186a6.99 6.99 0 00-9.84 0C-.693 4.884-.67 9.27 2.053 11.97c2.73 2.707 7.163 2.707 9.893 0C13.317 10.617 14 8.618 14 7.078h-1.556c0 1.54-.529 2.76-1.586 3.803a5.46 5.46 0 01-7.685 0 5.347 5.347 0 010-7.614c2.123-2.1 5.561-2.023 7.685.077L8.726 5.538zM7.388 7.194V3.89H6.222v3.889L9.55 9.753l.56-.94-2.723-1.619z" transform="translate(1 1)" id="price-updated" fill="#B2B6B8" fill-rule="evenodd" stroke="none"/></svg>
